src/assets/delete.svg

<?xml version="1.0" encoding="UTF-8"?>
<svg width="20" height="20" version="1.1" viewBox="0 0 .9375 .9375" xmlns="http://www.w3.org/2000/svg">
 <g transform="matrix(.035156 0 0 .035156 .046875 .046875)">
  <path d="m21 4h-3.1a5.009 5.009 0 0 0-4.9-4h-2a5.009 5.009 0 0 0-4.9 4h-3.1a1 1 0 0 0 0 2h1v13a5.006 5.006 0 0 0 5 5h6a5.006 5.006 0 0 0 5-5v-13h1a1 1 0 0 0 0-2zm-10-2h2a3.006 3.006 0 0 1 2.829 2h-7.658a3.006 3.006 0 0 1 2.829-2zm7 17a3 3 0 0 1-3 3h-6a3 3 0 0 1-3-3v-13h12z" fill="current"/>
  <path d="m10 18a1 1 0 0 0 1-1v-6a1 1 0 0 0-2 0v6a1 1 0 0 0 1 1z" fill="current"/>
  <path d="m14 18a1 1 0 0 0 1-1v-6a1 1 0 0 0-2 0v6a1 1 0 0 0 1 1z"/>
 </g>
</svg>

<svg xmlns="http://www.w3.org/2000/svg" viewBox="0 0 24 24" width="512" height="512">
  <path d="M21,4H17.9A5.009,5.009,0,0,0,13,0H11A5.009,5.009,0,0,0,6.1,4H3A1,1,0,0,0,3,6H4V19a5.006,5.006,0,0,0,5,5h6a5.006,5.006,0,0,0,5-5V6h1a1,1,0,0,0,0-2ZM11,2h2a3.006,3.006,0,0,1,2.829,2H8.171A3.006,3.006,0,0,1,11,2Zm7,17a3,3,0,0,1-3,3H9a3,3,0,0,1-3-3V6H18Z" fill="current"/>
  <path d="M10,18a1,1,0,0,0,1-1V11a1,1,0,0,0-2,0v6A1,1,0,0,0,10,18Z" fill="current"/>
  <path d="M14,18a1,1,0,0,0,1-1V11a1,1,0,0,0-2,0v6A1,1,0,0,0,14,18Z" fill="current"/>
</svg>
